X:1
T:The Lover's Ghost
M:4/4
L:1/8
K:C
 G2 Bc d2 ed| cB G4 FF| GG Bc d2e-B| c6(3G3.99999962500005/5.99999925000009G3.99999962500005/5.99999925000009A3.99999962500005/5.99999925000009G3.99999962500005/5.99999925000009A3.99999962500005/5.99999925000009B3.99999962500005/5.99999925000009|\
 c2 BG FF GD| CD EF G2(2G3.99999962500005/5.99999925000009G3.99999962500005/5.99999925000009A3.99999962500005/5.99999925000009 B3.99999962500005/5.99999925000009|\
 c2 GF E2 DD| C4- C z z2|

